X: 8
T:Dinners 2
% Nottingham Music Database
S:Wolfstone Arr Hamish, via EF
M:4/4
L:1/4
K:D
|:"D"df/2d/2 "A7"c/2d/2e/2c/2|"D"d/2e/2f/2d/2 A/2d/2B/2A/2|\
"G"G/2B/2B/2B/2 "D"A/2d/2f/2d/2|"Em"g/2f/2e/2d/2 "A7"c/2d/2e/2c/2|
"D"df/2d/2 "A7"c/2d/2e/2c/2|"D"d/2e/2f/2d/2 A/2d/2B/2A/2|\
"G"G/2B/2B/2B/2 "D"A/2d/2d/2d/2|[1"A7"c/2d/2e/2c/2 "D"d2:|[2"A7"c/2d/2e/2c/2 "D"d:||:
f/2e/2|"Bm"f/2B/2B/2B/2 d/2c/2B/2c/2|"A7"A/2a/2a/2g/2 a/2g/2f/2e/2|\
"Bm"f/2B/2B/2B/2 "E7"d/2c/2B/2c/2|"A7"A/2a/2a/2g/2 a/2g/2f/2e/2|
"D"df/2d/2 "A7"c/2d/2e/2c/2|"D"d/2e/2f/2d/2 A/2d/2B/2A/2|\
"G"G/2B/2B/2B/2 "D"A/2d/2d/2d/2|"A7"c/2d/2e/2c/2 "D"d:|


